brandFactory_export/3.Masa/Escudo ok seguridad ok _3Masa.svg

<?xml version="1.0" encoding="UTF-8"?>
<svg width="24px" height="24px" viewBox="0 0 24 24" version="1.1" xmlns="http://www.w3.org/2000/svg" xmlns:xlink="http://www.w3.org/1999/xlink">
    <title>3.Masa/Escudo ok seguridad ok _3Masa</title>
    <g id="Symbols" stroke="none" stroke-width="1" fill="none" fill-rule="evenodd">
        <g id="3.Masa/Escudo-ok-seguridad-ok-_3Masa" fill="#5CB615" fill-rule="nonzero">
            <path d="M20.6858059,3.76806723 C20.6858059,4.0907563 20.7058824,11.707563 20.1478992,15.0016807 C19.4016807,19.3344538 11.0117647,23.3848739 10.6554622,23.5529412 C10.4638655,23.6436975 10.2386555,23.6436975 10.0436975,23.5529412 C9.68739496,23.3815126 1.30756303,19.3310924 0.561344538,14.9983193 C-0.0100840336,11.7042017 0.0100840336,4.08739496 0.0134453782,3.76470588 C0.0134453782,3.54285714 0.117647059,3.33445378 0.28907563,3.19663866 C0.460504202,3.06218487 0.68907563,3.01176471 0.900840336,3.06554622 C2.83697479,3.37142857 3.85882353,2.68235294 5.15294118,1.81512605 C6.42689076,0.968067227 7.86890756,1.77635684e-15 10.3462185,1.77635684e-15 L10.3529412,1.77635684e-15 C12.8302521,0.00336134454 14.2689076,0.968067227 15.5428571,1.82184874 C16.8369748,2.68907563 17.8621849,3.37478992 19.8218487,3.06554622 C20.2252101,2.99831933 20.6084034,3.27394958 20.6756303,3.67731092 L20.6858059,3.76806723 L20.6858059,3.76806723 Z M8.56470588,14.0705882 L6.15798319,11.6369748 C5.88235294,11.3579832 5.43529412,11.3546218 5.15630252,11.6268908 L5.14621849,11.6369748 C4.86722689,11.9193277 4.86722689,12.3764706 5.14621849,12.6588235 L8.0605042,15.6067227 C8.33613445,15.8857143 8.78991597,15.8857143 9.06554622,15.610084 L9.06890756,15.6067227 L15.5563025,9.04537815 C15.8352941,8.76302521 15.8352941,8.30588235 15.5563025,8.02352941 C15.2806723,7.74453782 14.8336134,7.74117647 14.5546218,8.01344538 L14.5445378,8.02352941 C14.5411765,8.02016807 8.56470588,14.0705882 8.56470588,14.0705882 Z" id="Escudo-ok-seguridad-ok-_3Masa"></path>
        </g>
    </g>
</svg>

<svg width="24" height="24" viewBox="0 0 24 24" xmlns="http://www.w3.org/2000/svg"><path d="M20.686 3.768c0 .323.02 7.94-.538 11.234-.746 4.332-9.136 8.383-9.493 8.55a.721.721 0 01-.611 0c-.357-.17-8.736-4.22-9.483-8.554C-.01 11.704.011 4.088.013 3.765a.714.714 0 01.887-.7c1.937.306 2.959-.383 4.253-1.25C6.427.968 7.869 0 10.346 0h.007c2.477.003 3.916.968 5.19 1.822 1.294.867 2.32 1.553 4.279 1.244a.744.744 0 01.854.611l.01.091zM8.565 14.071l-2.407-2.434a.71.71 0 00-1.002-.01l-.01.01a.728.728 0 000 1.022l2.915 2.948a.711.711 0 001.005.003l.003-.003 6.487-6.562a.728.728 0 000-1.021.71.71 0 00-1.001-.01l-.01.01c-.004-.004-5.98 6.047-5.98 6.047z" fill="#5CB615" fill-rule="nonzero"/></svg>
